fs/recycle_20_filled.svg

<svg viewBox="0 0 20 20" fill="none" xmlns="http://www.w3.org/2000/svg" height="1em" width="1em">
  <path d="M8.90022 3.03742C9.3718 2.15911 10.6314 2.15917 11.1029 3.03752L12.7631 6.1304L11.7374 5.78849C11.3444 5.6575 10.9197 5.86987 10.7887 6.26283C10.6577 6.65579 10.8701 7.08053 11.263 7.21151L14.263 8.21151C14.4711 8.28088 14.6991 8.25567 14.8871 8.14253C15.075 8.02939 15.2039 7.83966 15.24 7.6233L15.74 4.6233C15.8081 4.21472 15.5321 3.8283 15.1235 3.7602C14.7149 3.69211 14.3285 3.96812 14.2604 4.3767L14.086 5.42326L12.4245 2.32808C11.3872 0.395704 8.61613 0.39558 7.57866 2.32786L5.84363 5.55934C5.64369 5.93173 5.79081 6.39571 6.16881 6.58485C6.53172 6.76643 6.97323 6.62643 7.16519 6.26891L8.90022 3.03742ZM16.9389 13.9095L15.0277 10.349C14.8277 9.97657 14.975 9.51254 15.3531 9.32349C15.716 9.14203 16.1574 9.28209 16.3493 9.63959L18.2605 13.2001C19.244 15.0321 17.9169 17.2507 15.8376 17.2507H12.3116L13.0305 17.9697C13.3234 18.2626 13.3234 18.7374 13.0305 19.0303C12.7376 19.3232 12.2628 19.3232 11.9699 19.0303L9.96987 17.0303C9.67698 16.7374 9.67698 16.2626 9.96987 15.9697L11.9699 13.9697C12.2628 13.6768 12.7376 13.6768 13.0305 13.9697C13.3234 14.2626 13.3234 14.7374 13.0305 15.0303L12.3101 15.7507H15.8376C16.7827 15.7507 17.3859 14.7423 16.9389 13.9095ZM7.25 15.7507C7.66421 15.7507 8 16.0865 8 16.5007C8 16.9149 7.66421 17.2507 7.25 17.2507H4.16418C2.08478 17.2507 0.757679 15.0319 1.74133 13.1999L3.58765 9.76109L2.23753 10.2115C1.8446 10.3425 1.41982 10.1303 1.28874 9.73733C1.15767 9.3444 1.36995 8.91961 1.76288 8.78854L4.76288 7.7878C4.9516 7.72485 5.15761 7.73946 5.33556 7.82842C5.51352 7.91738 5.64883 8.0734 5.71173 8.26214L6.71173 11.2629C6.84269 11.6558 6.63029 12.0806 6.23732 12.2115C5.84436 12.3425 5.41963 12.1301 5.28867 11.7371L4.88293 10.5196L3.06288 13.9094C2.61577 14.7422 3.219 15.7507 4.16418 15.7507H7.25Z" fill="#212121"/>
</svg>

<svg viewBox="0 0 20 20" fill="none" xmlns="http://www.w3.org/2000/svg" height="1em" width="1em">
  <path d="M8.9 3.037a1.25 1.25 0 0 1 2.203 0l1.66 3.093-1.026-.342a.75.75 0 0 0-.474 1.424l3 1a.75.75 0 0 0 .977-.589l.5-3a.75.75 0 1 0-1.48-.246l-.174 1.046-1.662-3.095C11.387.396 8.617.396 7.58 2.328L5.844 5.559a.75.75 0 0 0 1.321.71L8.9 3.037Zm8.04 10.873-1.911-3.561a.75.75 0 1 1 1.321-.71l1.912 3.561c.983 1.832-.344 4.05-2.423 4.05h-3.526l.719.72a.75.75 0 1 1-1.061 1.06l-2-2a.75.75 0 0 1 0-1.06l2-2a.75.75 0 1 1 1.06 1.06l-.72.72h3.528a1.25 1.25 0 0 0 1.1-1.84Zm-9.69 1.84a.75.75 0 0 1 0 1.5H4.164c-2.08 0-3.406-2.218-2.423-4.05l1.847-3.44-1.35.45a.75.75 0 0 1-.475-1.422l3-1.001a.75.75 0 0 1 .949.474l1 3a.75.75 0 1 1-1.423.475l-.406-1.217-1.82 3.39a1.25 1.25 0 0 0 1.101 1.84H7.25Z" fill="#212121"/>
</svg>
